site/textType/img/Star_empty.svg

<svg width="16" height="15" viewBox="0 0 16 15" fill="none" xmlns="http://www.w3.org/2000/svg">
<path d="M8.47553 1.08156L9.5451 4.37336C9.74591 4.99139 10.3218 5.40983 10.9717 5.40983H14.4329C14.9172 5.40983 15.1186 6.02964 14.7268 6.31434L11.9266 8.34878C11.4009 8.73075 11.1809 9.4078 11.3817 10.0258L12.4513 13.3176C12.6009 13.7783 12.0737 14.1613 11.6818 13.8766L8.88168 11.8422C8.35595 11.4602 7.64405 11.4602 7.11832 11.8422L4.31815 13.8766C3.9263 14.1613 3.39906 13.7783 3.54873 13.3176L4.6183 10.0258C4.81911 9.4078 4.59913 8.73075 4.07339 8.34878L1.27323 6.31434C0.881369 6.02964 1.08276 5.40983 1.56712 5.40983H5.02832C5.67816 5.40983 6.25409 4.99139 6.4549 4.37336L7.52447 1.08156C7.67415 0.620903 8.32585 0.620903 8.47553 1.08156Z" stroke="#9B9B9B"/>
</svg>

<svg width="16" height="15" fill="none" xmlns="http://www.w3.org/2000/svg"><path d="M8.48 1.08l1.07 3.29c.2.63.77 1.04 1.42 1.04h3.46c.49 0 .69.62.3.9l-2.8 2.04c-.53.38-.75 1.05-.55 1.68l1.07 3.29c.15.46-.38.84-.77.56l-2.8-2.04c-.52-.38-1.24-.38-1.76 0l-2.8 2.04c-.39.28-.92-.1-.77-.56l1.07-3.29c.2-.63-.02-1.3-.55-1.68l-2.8-2.04c-.39-.28-.19-.9.3-.9h3.46c.65 0 1.22-.41 1.42-1.04l1.07-3.29c.15-.46.81-.46.96 0z" stroke="#9B9B9B"/></svg>
